images_sukapura_svg/cmd/sc_colorscaleformatdialog.svg

<svg height="16" viewBox="0 0 16 16" width="16" xmlns="http://www.w3.org/2000/svg"><path d="m1 1h14v14h-14z" fill="#fff"/><path d="m1 5v1h14v-1zm0 5v1h14v-1z" fill="#bababa"/><path d="m1 1h8v4h-8z" fill="#f58b00"/><path d="m1 6h6v4h-6z" fill="#0040dd"/><path d="m1 11h11v4h-11z" fill="#f58b00"/><path d="m0 0v16h16v-16zm1 1h14v4 1 4 1 4h-14v-4-1-4-1z" fill="#69696e"/></svg>

<?xml version="1.0" encoding="UTF-8" standalone="no"?>
<svg
   xmlns:dc="http://purl.org/dc/elements/1.1/"
   xmlns:cc="http://creativecommons.org/ns#"
   xmlns:rdf="http://www.w3.org/1999/02/22-rdf-syntax-ns#"
   xmlns:svg="http://www.w3.org/2000/svg"
   xmlns="http://www.w3.org/2000/svg"
   xmlns:sodipodi="http://sodipodi.sourceforge.net/DTD/sodipodi-0.dtd"
   xmlns:inkscape="http://www.inkscape.org/namespaces/inkscape"
   viewBox="0 0 16 16"
   version="1.1"
   id="svg22"
   sodipodi:docname="sc_colorscaleformatdialog.svg"
   inkscape:export-filename="/home/rizmut/Dokumen/Rizmut/Github/libreoffice-style-sukapura/images_sukapura/cmd/lc_colorscaleformatdialog.png"
   inkscape:export-xdpi="96"
   inkscape:export-ydpi="96"
   inkscape:version="0.92.3 (unknown)"
   width="16"
   height="16">
  <metadata
     id="metadata28">
    <rdf:RDF>
      <cc:Work
         rdf:about="">
        <dc:format>image/svg+xml</dc:format>
        <dc:type
           rdf:resource="http://purl.org/dc/dcmitype/StillImage" />
        <dc:title></dc:title>
      </cc:Work>
    </rdf:RDF>
  </metadata>
  <defs
     id="defs26">
    <filter
       style="color-interpolation-filters:sRGB"
       id="b"
       height="1.094553"
       width="1.097492"
       x="-0.048746001"
       y="-0.047277">
      <feGaussianBlur
         stdDeviation=".36559322"
         id="feGaussianBlur987" />
    </filter>
    <linearGradient
       gradientTransform="translate(-37.728814,-3.5658238)"
       id="a"
       gradientUnits="userSpaceOnUse"
       x1="12"
       x2="12"
       y1="3"
       y2="21">
      <stop
         offset="0"
         stop-color="#efefef"
         id="stop978" />
      <stop
         offset=".33333334"
         stop-color="#fff"
         id="stop980" />
      <stop
         offset=".8888889"
         stop-color="#fff"
         id="stop982" />
      <stop
         offset="1"
         stop-color="#f5f5f5"
         id="stop984" />
    </linearGradient>
    <linearGradient
       gradientTransform="translate(-28,15)"
       id="a-3"
       gradientUnits="userSpaceOnUse"
       x1="14"
       x2="13.79661"
       y1="22"
       y2="2.1355929">
      <stop
         offset="0"
         stop-color="#0040dd"
         id="stop2568" />
      <stop
         offset="1"
         stop-color="#0a84ff"
         id="stop2570" />
    </linearGradient>
  </defs>
  <sodipodi:namedview
     pagecolor="#ffffff"
     bordercolor="#666666"
     borderopacity="1"
     objecttolerance="10"
     gridtolerance="10"
     guidetolerance="10"
     inkscape:pageopacity="0"
     inkscape:pageshadow="2"
     inkscape:window-width="1366"
     inkscape:window-height="699"
     id="namedview24"
     showgrid="true"
     inkscape:zoom="9.8333334"
     inkscape:cx="17.414044"
     inkscape:cy="2.7158604"
     inkscape:window-x="0"
     inkscape:window-y="0"
     inkscape:window-maximized="1"
     inkscape:current-layer="svg22">
    <inkscape:grid
       type="xygrid"
       id="grid1604"
       spacingx="0.5"
       spacingy="0.5"
       empspacing="2" />
  </sodipodi:namedview>
  <path
     inkscape:connector-curvature="0"
     style="fill:#ffffff"
     d="M 1,1 H 15 V 15 H 1 Z"
     id="path2-3" />
  <path
     style="fill:#bababa;fill-opacity:1"
     d="M 1 5 L 1 6 L 15 6 L 15 5 L 1 5 z M 1 10 L 1 11 L 15 11 L 15 10 L 1 10 z "
     id="path4-6" />
  <path
     inkscape:connector-curvature="0"
     style="fill:#f58b00;fill-opacity:1"
     d="M 1,1 H 9 V 5 H 1 Z"
     id="path6-7" />
  <path
     inkscape:connector-curvature="0"
     style="fill:#0040dd;fill-opacity:1"
     d="m 1,6 h 6 v 4 H 1 Z"
     id="path8-5" />
  <path
     inkscape:connector-curvature="0"
     style="fill:#f58b00;fill-opacity:1"
     d="m 1,11 h 11 v 4 H 1 Z"
     id="path10-3" />
  <path
     style="fill:#69696e;fill-opacity:1"
     d="M 0 0 L 0 16 L 16 16 L 16 0 L 0 0 z M 1 1 L 15 1 L 15 5 L 15 6 L 15 10 L 15 11 L 15 15 L 1 15 L 1 11 L 1 10 L 1 6 L 1 5 L 1 1 z "
     id="path864" />
</svg>
